pieces/kosal/pb.svg

<svg xmlns="http://www.w3.org/2000/svg" viewBox="0 0 81 81"><style>.st0{fill:none}.st1{fill:#010101}.st2{fill:#6d6e6e}.st3{display:none}.st4{display:inline;fill:none}.st5,.st6,.st7{display:inline;fill:#fff}.st6,.st7{fill:#cfcecf}.st7{fill:#231f20}.st7,.st8{stroke:#000;stroke-width:.5;stroke-miterlimit:10}.st8,.st9{display:inline}</style><path class="st0" d="M0 0h81v81H0z"/><path class="st1" d="M40.5 12.5c-6 0-10.7 4.8-10.7 10.7 0 3.6 1.8 6.9 4.6 8.8h12.3c2.8-1.9 4.6-5.2 4.6-8.8-.1-6-4.8-10.7-10.8-10.7"/><path class="st2" d="M43.2 16.4c-1.5-.9-3.3-1.1-5.2-.6-3.6 1-5.6 4.6-4.7 8.2 0 .1.1.2.1.3 5.8.7 10.6-5.2 9.8-7.9z"/><path class="st1" d="M34.5 31.7l-.3 7.7-3.5 21.7L18.3 72h44.3L50.3 61.1 46 39.4l-.3-7.7"/><path class="st2" d="M37.7 39.6l-3.9 22.5-6.6 7.1h7.6l5.2-5.4.1-24.2z"/><path class="st1" d="M26.6 38.8h27.8l-6.7-8H33.3z"/><path class="st2" d="M32.3 36.5h8.8l-2.1-4h-3.8z"/><g id="Layer_2_1_" class="st3"><path class="st4" d="M0 0h81v81H0z"/><path class="st5" d="M34.3 33.2c-2.8-2-4.7-5.2-4.7-8.9 0-6 4.9-10.9 10.9-10.9s10.9 4.9 10.9 10.9c0 3.7-1.9 7-4.7 8.9l.5 8.3 3.4 18.7L63.3 71H17.7l12.7-10.8 3.4-18.7"/><path class="st6" d="M45 14.4C48.7 19.9 46.1 33 34.8 33c-.2 0 12.1.6 13.1-.3 1.9-1.9 3.1-4.4 3.1-7.3.1-6-6.2-12.2-6-11zM40.5 60.8l7.3 9.2h14.3l-10.9-8.9-1.4-.9L46.9 41h-6.4z"/><path class="st7" d="M40.5 11.7c-7 0-12.7 5.7-12.7 12.7 0 4.3 2.2 8.1 5.5 10.4h7.3c-5.7 0-10.4-4.7-10.4-10.4S34.9 14 40.6 14 51 18.6 51 24.3s-4.7 10.4-10.4 10.4h7.3c3.3-2.3 5.5-6.2 5.5-10.4-.3-6.9-6-12.6-12.9-12.6z"/><path class="st8" d="M48.2 42l3.2 17.6L66 72H15l14.5-12.4L32.8 42m2.2-1l-3.6 19.7-11 9.3h40.1l-10.9-9.3L46 41"/><path class="st9" d="M50.3 32.8H30.7l-8.2 10.4h36z"/><path class="st5" d="M27.5 41h26l-4.6-5.8H32.1z"/><path class="st6" d="M44.1 41h9.4l-4.6-5.8h-8.2z"/></g></svg>

<svg width="81" height="81" viewBox="0 0 81 81" fill="none" xmlns="http://www.w3.org/2000/svg">
<path d="M40.5 12.5C34.5 12.5 29.8 17.3 29.8 23.2C29.8 26.8 31.6 30.1 34.4 32H46.7C49.5 30.1 51.3 26.8 51.3 23.2C51.2 17.2 46.5 12.5 40.5 12.5Z" fill="#010101"/>
<path d="M43.2 16.4C41.7 15.5 39.9 15.3 38 15.8C34.4 16.8 32.4 20.4 33.3 24C33.3 24.1 33.4 24.2 33.4 24.3C39.2 25 44 19.1 43.2 16.4Z" fill="#6D6E6E"/>
<path d="M34.5 31.7L34.2 39.4L30.7 61.1L18.3 72H62.6L50.3 61.1L46 39.4L45.7 31.7" fill="#010101"/>
<path d="M37.7 39.6L33.8 62.1L27.2 69.2H34.8L40 63.8L40.1 39.6H37.7Z" fill="#6D6E6E"/>
<path d="M26.6 38.8H54.4L47.7 30.8H33.3L26.6 38.8Z" fill="#010101"/>
<path d="M32.3 36.5H41.1L39 32.5H35.2L32.3 36.5Z" fill="#6D6E6E"/>
</svg>
